X: 1
T: Tap Room, The
M: 4/4
L: 1/8
R: reel
K: Emin
E2 B^c dBBB|dBAF DEFD|E2 B^c dBBB|dBAF BEED|
E2 B^c dBBB|dBAF DEF2|afge fde^c|dBAF DEFD:|
B/^c/d ef gfed|B2 AF DEFD|B/^c/d ef gfed|B2 Ac BE E2|
B/^c/d ef gfed|B2 AF DEFD|afge fde^c|dBAF DEFD:|
